X:1
T:The Chinee Bumboat Man
M:4/4
L:1/4
K:Db
 B| B B B B| c d A A| F D E F| G G E F| F E E E3/2| B/2 B B B B| c d A2|\
 F D2 F| G2 E F2| D E E3/2 E/2| E2 F G| G A B2| B e2 B/2B/2| =B2 B A2|\
 _B B3| z2 B e| e e d2| B =B2 B| _B2 E/2E/2 G| G E F F| D E B B| B B B B3/2|\
 =B/2 d _B3/2 =B/2 d| A2 F D3| E/2E/2 E/2E/2 F/2D/2 E2| B B B B| B c d A2|\
 F D3| G/2G/2 G/2E/2 F/2F/2 D| E3/2 B/2 B||||
